X: 1
T: In Gradina Lui Ion
O: Romania
P: AA (BCA)x3 BCC
N: From transcription by Ray Rosenstock & Martina Aurian-Blajeni
N: Vowel marks need to be added here.
%%vocalfont Helvetica-Narrow-bold 18
M: 3/4
L: 1/8
K: C
"A"\
[|"C"C2 E4 | "F"FE D3 C | "Fm"FE D3 C | "G"G2 G2 z2 \
| "C"C2 E4 | "F"FE D3 C | "G7"FE D3 C | "C"C2 C2 z2 |]
"B"\
[|"C"[EC][FDC] [G3E3C3] [AFC] | [_BGC][AFC] [G3E3C3] [FDC] \
| "C"[EC][FDC] [G3E3C3] [AFC] | [_BGC][AFC] [G4E4C4] |
